src/renderer/assets/svg/logo-bepswap-normal.svg

<?xml version="1.0" encoding="UTF-8"?>
<svg width="63px" height="36px" viewBox="0 0 63 36" version="1.1" xmlns="http://www.w3.org/2000/svg" xmlns:xlink="http://www.w3.org/1999/xlink">
    <!-- Generator: Sketch 54.1 (76490) - https://sketchapp.com -->
    <title>Combined Shape</title>
    <desc>Created with Sketch.</desc>
    <defs>
        <linearGradient x1="34.4049464%" y1="100%" x2="65.5950536%" y2="9.09203013%" id="linearGradient-1">
            <stop stop-color="#33FF99" offset="0%"></stop>
            <stop stop-color="#00CCFF" offset="100%"></stop>
        </linearGradient>
    </defs>
    <g id="Symbols" stroke="none" stroke-width="1" fill="none" fill-rule="evenodd">
        <g id="Logo/Swap-Copy" transform="translate(0.000000, -2.000000)" fill="url(#linearGradient-1)">
            <path d="M15.6990909,4.38527703 L31.4686608,-10.9686608 L47.3009178,4.44631194 C49.2794387,6.37268578 49.3217123,9.53822842 47.3953384,11.5167493 C47.3679767,11.5448517 47.3402853,11.5726312 47.3122699,11.6000819 L43.810433,15.0313392 L31.4686608,3.18017641 L19.3737241,15.0313392 L15.7487299,11.5978046 C13.7438818,9.69884568 13.6580417,6.53418476 15.5570007,4.52933665 C15.6033875,4.48036323 15.6507606,4.43233352 15.6990909,4.38527703 Z M15.6990909,35.6774014 C15.6507606,35.6303449 15.6033875,35.5823152 15.5570007,35.5333418 C13.6580417,33.5284936 13.7438818,30.3638327 15.7487299,28.4648738 L19.3737241,25.0313392 L31.4686608,36.882502 L43.810433,25.0313392 L47.3122699,28.4625965 C47.3402853,28.4900472 47.3679767,28.5178267 47.3953384,28.5459291 C49.3217123,30.52445 49.2794387,33.6899926 47.3009178,35.6163665 L31.4686608,51.0313392 L15.6990909,35.6774014 Z M31.9686608,28.0313392 C27.5503828,28.0313392 23.9686608,24.4496172 23.9686608,20.0313392 C23.9686608,15.6130612 27.5503828,12.0313392 31.9686608,12.0313392 C36.3869388,12.0313392 39.9686608,15.6130612 39.9686608,20.0313392 C39.9686608,24.4496172 36.3869388,28.0313392 31.9686608,28.0313392 Z" id="Combined-Shape" transform="translate(31.500000, 20.031339) rotate(90.000000) translate(-31.500000, -20.031339) "></path>
        </g>
    </g>
</svg>

<svg xmlns="http://www.w3.org/2000/svg" width="63" height="36" viewBox="0 0 63 36"><defs><linearGradient id="a" x1="34.405%" x2="65.595%" y1="100%" y2="9.092%"><stop offset="0%" stop-color="#3F9"/><stop offset="100%" stop-color="#0CF"/></linearGradient></defs><path fill="url(#a)" fill-rule="evenodd" d="m15.7 4.385 15.769-15.354L47.3 4.446a5 5 0 0 1 .011 7.154l-3.502 3.431L31.47 3.181 19.374 15.03l-3.625-3.433a5 5 0 0 1-.05-7.213m0 31.292a5 5 0 0 1 .049-7.212l3.625-3.434 12.095 11.852L43.81 25.03l3.502 3.432a5 5 0 0 1-.011 7.153L31.469 51.031zm16.269-7.646a8 8 0 1 1 0-16 8 8 0 0 1 0 16" transform="rotate(90 32.5 19.031)"/></svg>
